X: 14043
T: JOHN REDMOND'S
C: Bob McQuillen April'09
B: Bob's Note Book 14 #43
%R: jig
%D:2009
Z: 2020 John Chambers <jc:trillian.mit.edu>
N: The two endings have odd brackets above; translated to give more normal results.
M: 6/8
L: 1/8
K: G
|:B2d BGE | DGB AGA | B2d BGE | GBG EGB |\
| B2d BGE | DGB AGA | BGE DGB | dge dBA :|
|:GBd g2d | ege dBA | Bdg e2g | dBG AGE |\
| GBd g2d | ege dBA | BGB dge |["mostly" dBG EGA :|["Last time"dBG E2G |]
%%begintext align
%% John Redmond
%% is a very find button accordion player from the
%% Bronx, N.Y. I once had the privilege of taking
%% lessons from him. He is a fine teacher. Thanks,
%% Johnny! All the best to you. Sl\'ainte!
%%endtext

%%sep 1 1 500

%%sep 1 1 500

